X:18726
T:White Cockade. JC.102
M:2/4
L:1/8
Q:160
S:John Clare,Poet,Helpston. (1793-1864)
R:Misc.
O:England
A:Northamptonshire
N:MR. the two notes after the first double bar lines,qu's in |MS,are
N:given as semi-qu's
Z:P Headford
K:G
G/A/|BBB A/G/|BBB g/e/|dBB A/G/|FAA G/A/|BBB A/G/|Bd ga|
b/a/g/f/ e/f/g/e/|dB "crot"B:|!
|:B/c/|dBgB|dBB B/c/|dBgB|aAA G/A/|
BBB A/G/|Bd g a|b/a/g/f/ "Qu's"e/f/g/e/|dB "crot"B:|]
W:Song text exists. See Deacon.


